X: 0853
T: MAX HAWKES'S FAVORITE
B: Oliver Ditson "The Boston Collection of Instrumental Music" 1910 p.85 #3
F: http://conquest.imslp.info/files/imglnks/usimg/8/8f/IMSLP175643-PMLP309456-bostoncollection00bost_bw.pdf
%: 2012 John Chambers <jc:trillian.mit.edu>
M: 6/8
L: 1/8
K: G
B/c/ |\
dBG BGE | EAA A2G/A/ | B>AG dBG | Bdd Td2c/B/ |\
cec dc/B/A/G/ | EAA A2G/A/ | B>AG EGD | EGG G2 :|
g/a/ |\
b>ag egd | eaa a2g/a/ | b>ag egd | egg Tg2B |\
cec dBG | EAA A2G/A/ | B>AG EGD | EGG G2 g/a/ |
b>ag egd | eaa a2g/a/ | b>ag egd | egg Tg2B |\
egg Tg2B | c/e/d/c/B/A/ B/d/c/B/A/G/ | EAA A2B/c/ | d>c B/A/ GBD | EGG G2 |]

%%sep 1 1 500
%%sep 1 1 500
